souls/img/fb.svg

<svg width="22" height="22" viewBox="0 0 22 22" fill="none" xmlns="http://www.w3.org/2000/svg">
<path d="M22 0.158654V3.64904H18.0023C16.5424 3.64904 15.5579 3.80769 15.0486 4.125C14.5394 4.44231 14.2847 4.91827 14.2847 5.55288V8.05168H21.7454L20.7523 11.9651H14.2847V22H6.49306V11.9651H0V8.05168H6.49306V5.16947C6.49306 3.53005 7.37577 2.25861 9.1412 1.35517C10.9066 0.451723 13.2577 0 16.1944 0C18.6898 0 20.625 0.0528846 22 0.158654Z" fill="black"/>
</svg>

<svg xmlns="http://www.w3.org/2000/svg" width="22" height="22" fill="none"><path fill="#000" d="M22 .159v3.49h-3.998q-2.19 0-2.953.476-.764.476-.764 1.428v2.499h7.46l-.993 3.913h-6.467V22H6.493V11.965H0V8.052h6.493V5.169q0-2.458 2.648-3.814T16.194 0Q19.938 0 22 .159"/></svg>
